components/ui-node-icon/src/changeDataType/changeDataType.medium.svg

<svg width="24" height="24" viewBox="0 0 24 24" fill="none" xmlns="http://www.w3.org/2000/svg">
  <path fill-rule="evenodd" clip-rule="evenodd" d="M7 5H6C4.34315 5 3 6.34314 3 8V18C3 19.6568 4.34315 21 6 21H16C17.6569 21 19 19.6568 19 18V17H10C8.34315 17 7 15.6568 7 14V5Z" fill="var(--tbl--colors--icons--clean--secondary)"/>
  <path fill-rule="evenodd" clip-rule="evenodd" d="M10 1C8.34315 1 7 2.34314 7 4V14C7 15.6568 8.34315 17 10 17H20C21.6569 17 23 15.6568 23 14V4C23 2.34315 21.6569 1 20 1H10ZM18.3162 4.05133C18.8402 4.22598 19.1233 4.7923 18.9487 5.31624L18.7208 6.00001H19.75C20.1642 6.00001 20.5 6.3358 20.5 6.75001C20.5 7.16423 20.1642 7.50001 19.75 7.50001H18.2208L17.3874 10H18.25C18.6642 10 19 10.3358 19 10.75C19 11.1642 18.6642 11.5 18.25 11.5H16.8874L16.4487 12.8162C16.274 13.3402 15.7077 13.6233 15.1838 13.4487C14.6598 13.2741 14.3767 12.7077 14.5513 12.1838L14.7792 11.5H12.8874L12.4487 12.8162C12.274 13.3401 11.7077 13.6233 11.1838 13.4486C10.6598 13.274 10.3767 12.7077 10.5513 12.1837L10.7792 11.5H9.75C9.33579 11.5 9 11.1642 9 10.75C9 10.3358 9.33579 10 9.75 10H11.2792L12.1126 7.50001H11.75C11.3358 7.50001 11 7.16423 11 6.75001C11 6.3358 11.3358 6.00001 11.75 6.00001H12.6126L13.0513 4.68379C13.226 4.15985 13.7923 3.87669 14.3162 4.05134C14.8402 4.22599 15.1233 4.79231 14.9487 5.31625L14.7208 6.00001H16.6126L17.0513 4.68379C17.226 4.15985 17.7923 3.87669 18.3162 4.05133ZM14.2208 7.50001H16.1126L15.2792 10H13.3874L14.2208 7.50001Z" fill="var(--tbl--colors--icons--clean--primary)"/>
</svg>

<svg xmlns="http://www.w3.org/2000/svg" width="24" height="24" fill="none" viewBox="0 0 24 24">
  <path fill="var(--tbl--colors--icons--clean--secondary)" fill-rule="evenodd" d="M7 5H6a3 3 0 0 0-3 3v10a3 3 0 0 0 3 3h10a3 3 0 0 0 3-3v-1h-9a3 3 0 0 1-3-3V5Z" clip-rule="evenodd"/>
  <path fill="var(--tbl--colors--icons--clean--primary)" fill-rule="evenodd" d="M10 1a3 3 0 0 0-3 3v10a3 3 0 0 0 3 3h10a3 3 0 0 0 3-3V4a3 3 0 0 0-3-3H10Zm8.316 3.051a1 1 0 0 1 .633 1.265L18.72 6h1.029a.75.75 0 0 1 0 1.5h-1.53l-.833 2.5h.863a.75.75 0 0 1 0 1.5h-1.363l-.438 1.316a1 1 0 0 1-1.898-.632l.228-.684h-1.892l-.438 1.316a1 1 0 0 1-1.898-.632l.228-.684H9.75a.75.75 0 0 1 0-1.5h1.53l.833-2.5h-.363a.75.75 0 0 1 0-1.5h.863l.438-1.316a1 1 0 0 1 1.898.632L14.72 6h1.892l.438-1.316a1 1 0 0 1 1.265-.633ZM14.221 7.5h1.892l-.834 2.5h-1.892l.834-2.5Z" clip-rule="evenodd"/>
</svg>
